svg/knife_military.svg

<svg xmlns="http://www.w3.org/2000/svg" viewBox="0 0 24 24"><path d="m22 2-4.61 1.75-6.93 6.93L14 14.22l6.92-6.93C22.43 5.78 22 2 22 2M8.33 10l-1.41 1.39 1.41 1.41-5.65 5.66L6.21 22l5.66-5.66 1.41 1.42 1.42-1.42z"/></svg>

<?xml version="1.0" encoding="UTF-8"?><!DOCTYPE svg PUBLIC "-//W3C//DTD SVG 1.1//EN" "http://www.w3.org/Graphics/SVG/1.1/DTD/svg11.dtd"><svg xmlns="http://www.w3.org/2000/svg" xmlns:xlink="http://www.w3.org/1999/xlink" version="1.1" id="mdi-knife-military" width="24" height="24" viewBox="0 0 24 24"><path d="M22,2L17.39,3.75L10.46,10.68L14,14.22L20.92,7.29C22.43,5.78 22,2 22,2M8.33,10L6.92,11.39L8.33,12.8L2.68,18.46L6.21,22L11.87,16.34L13.28,17.76L14.7,16.34L8.33,10Z" /></svg>
